X: 1
T: Dutch Skipper, The
M: 3/8
L: 1/8
Z: Transcribed and edited by Flynn Titford-Mock
Z: ABC's: AK/Fiddler's Companion
Z: Dances added 2015 John Chambers <jc:trillian.mit.edu>
B: Goulding "Twenty-four Country Dances For the Year 1808", London 1808 p.1 #1
F: http://petrucci.mus.auth.gr/imglnks/usimg/7/7e/IMSLP351864-PMLP71783-goulding_24_dances_1808.pdf
K: Bb
% - - - - - - - - - - - - - - - - - - - - - - - - - - - - -
|:\
Bbb | f2d | ecc | dBB |\
Bbb | f2d | ecA | B3 ::\
Acc | c2d | ecc | dBB |!
Acc | c2d | ecA | B2F |\
Acc | c2d | ecc | dBB |\
Acc | c2d | ecA | B2z :|
% - - - - - - - - - - Dance description - - - - - - - - - -
%%begintext align
%%   1st Lady set to the 2d Cu: & hand three
%% round 1st Gent: do the same, lead down the
%% middle up again foot it & cast off.
%%endtext
